X: 24017
T: Logger's Breakdown
R: reel
M: 4/4
K: Gminor
K: Bb
FE|D2FB dBFD|E2GB eBGE|F2Ac ecAc|BdcB AGFE|
D2FB dBFD|E2GB eBGE|F2Ac ecAc|BdcA B2:|
|:dc|B2df b3a|aggf gag2|A2cf a3g|gff=e fgfd|
B2df b3a|aggf gag2|f=efg afcA|1 BdcA B2:|2 BGFD B,2||

